icons/php/php-plain.svg

<svg width="128" height="128" viewBox="0 0 128 128" xmlns="http://www.w3.org/2000/svg">
<path fill-rule="evenodd" clip-rule="evenodd" d="M63.9999 96.4393C29.6483 96.4393 1.79977 81.79 1.79977 63.7196C1.79977 45.6495 29.6483 31 63.9999 31C98.3515 31 126.2 45.6495 126.2 63.7196C126.2 81.79 98.3515 96.4393 63.9999 96.4393ZM35.5938 68.15H31.2489L33.9162 54.4268H38.8102C41.5238 54.4268 43.3323 54.9278 44.2367 55.9296C45.14 56.9314 45.3553 58.6511 44.8826 61.088C44.3886 63.6261 43.4378 65.4373 42.0282 66.5226C40.6187 67.6076 38.4736 68.15 35.5938 68.15ZM50.5562 52.5058C48.6615 50.3368 45.6471 49.2524 41.515 49.2524H27.7794L21.4064 82.042H28.5492L30.2435 73.3244H36.3618C39.0615 73.3244 41.2822 73.0416 43.0257 72.4735C44.7692 71.9071 46.3537 70.9559 47.78 69.6211C48.9769 68.5208 49.9454 67.3073 50.6871 65.9802C51.4279 64.654 51.9541 63.1901 52.2653 61.589C53.0212 57.7021 52.4507 54.6747 50.5562 52.5058ZM65.2735 40.5348L63.5792 49.2524H69.8923C73.8647 49.2524 76.6046 49.9458 78.1126 51.3307C79.6206 52.7166 80.0723 54.962 79.4696 58.0659L76.5045 73.3244H69.3054L72.1245 58.8164C72.4453 57.166 72.3274 56.0403 71.7704 55.4401C71.2132 54.8398 70.0278 54.5393 68.2147 54.5393H62.5509L58.9005 73.3244H51.8139L58.1869 40.5348H65.2735ZM91.3452 68.15H87.0005L89.6676 54.4268H94.5616C97.2752 54.4268 99.0837 54.9278 99.9881 55.9296C100.892 56.9314 101.107 58.6511 100.634 61.088C100.14 63.6261 99.1895 65.4373 97.7796 66.5226C96.3701 67.6076 94.225 68.15 91.3452 68.15ZM106.308 52.5058C104.413 50.3368 101.398 49.2524 97.2664 49.2524H83.531L77.158 82.042H84.3009L85.9949 73.3244H92.1132C94.8129 73.3244 97.0336 73.0416 98.7771 72.4735C100.521 71.9071 102.105 70.9559 103.531 69.6211C104.728 68.5208 105.697 67.3073 106.439 65.9802C107.179 64.654 107.706 63.1901 108.017 61.589C108.773 57.7021 108.202 54.6747 106.308 52.5058Z" fill="black"/>
</svg>

<svg xmlns="http://www.w3.org/2000/svg" viewBox="0 0 128 128"><path fill-rule="evenodd" d="M64 96.44c-34.352 0-62.2-14.65-62.2-32.72S29.648 31 64 31c34.352 0 62.2 14.65 62.2 32.72S98.351 96.44 64 96.44ZM35.594 68.15h-4.345l2.667-13.723h4.894c2.714 0 4.522.5 5.427 1.503.903 1.001 1.118 2.721.646 5.158-.494 2.538-1.445 4.35-2.855 5.435s-3.554 1.627-6.434 1.627Zm14.962-15.644c-1.895-2.17-4.909-3.254-9.041-3.254H27.779l-6.373 32.79h7.143l1.695-8.718h6.118c2.7 0 4.92-.282 6.664-.85 1.743-.567 3.328-1.518 4.754-2.853 1.197-1.1 2.165-2.314 2.907-3.64.74-1.327 1.267-2.79 1.578-4.392.756-3.887.186-6.914-1.709-9.083Zm14.718-11.971-1.695 8.717h6.313c3.973 0 6.713.694 8.22 2.079 1.509 1.386 1.96 3.631 1.358 6.735l-2.966 15.258h-7.199l2.82-14.508c.32-1.65.202-2.776-.355-3.376-.557-.6-1.742-.9-3.555-.9H62.55L58.9 73.323h-7.087l6.373-32.79h7.087ZM91.344 68.15h-4.344l2.667-13.723h4.894c2.713 0 4.522.5 5.426 1.503.904 1.001 1.119 2.721.646 5.158-.494 2.538-1.445 4.35-2.854 5.435-1.41 1.085-3.555 1.627-6.435 1.627Zm14.963-15.644c-1.895-2.17-4.91-3.254-9.042-3.254H83.531l-6.373 32.79h7.143l1.694-8.718h6.118c2.7 0 4.92-.282 6.664-.85 1.744-.567 3.328-1.518 4.754-2.853 1.197-1.1 2.166-2.314 2.908-3.64.74-1.327 1.267-2.79 1.578-4.392.756-3.887.185-6.914-1.709-9.083Z" clip-rule="evenodd"/></svg>
